webroot/img/icon_instagram.svg

<svg width="15" height="15" viewBox="0 0 15 15" fill="none" xmlns="http://www.w3.org/2000/svg">
<path d="M11.8136 0.467285H3.18478C1.68556 0.467285 0.466797 1.68682 0.466797 3.18527V11.815C0.466797 13.3142 1.68634 14.533 3.18478 14.533H11.8145C13.3137 14.533 14.5325 13.3134 14.5325 11.815V3.18527C14.5324 1.68682 13.3129 0.467285 11.8136 0.467285ZM12.6699 2.03996L12.9777 2.03919V4.37357L10.6262 4.38138L10.6184 2.047L12.6699 2.03996ZM7.49964 5.14695C9.45042 5.14695 9.85273 6.97819 9.85273 7.50081C9.85273 8.7969 8.7965 9.85313 7.49964 9.85313C6.20201 9.85313 5.14655 8.7969 5.14655 7.50081C5.14569 6.97819 5.54886 5.14695 7.49964 5.14695ZM12.991 11.6446C12.991 12.3876 12.3871 12.9923 11.6426 12.9923H3.33007C2.58629 12.9923 1.98163 12.3884 1.98163 11.6446V5.93449H3.93473C3.75349 6.38056 3.65111 6.98995 3.65111 7.5009C3.65111 9.62125 5.37611 11.347 7.49723 11.347C9.61836 11.347 11.3425 9.62125 11.3425 7.5009C11.3425 6.98995 11.2401 6.38056 11.0597 5.93449H12.9893V11.6446H12.991Z" fill="#00ADEE"/>
</svg>

<svg viewBox="0 0 15 15" xmlns="http://www.w3.org/2000/svg">
  <path d="M11.81.47H3.18A2.72 2.72 0 00.47 3.19v8.62c0 1.5 1.22 2.72 2.71 2.72h8.63c1.5 0 2.72-1.22 2.72-2.71V3.18c0-1.5-1.22-2.72-2.72-2.72zm.86 1.57h.3v2.33l-2.34.01-.01-2.33 2.05-.01zM7.5 5.14c1.95 0 2.35 1.84 2.35 2.36a2.36 2.36 0 01-4.7 0c0-.52.4-2.35 2.35-2.35zm5.5 6.5c0 .75-.61 1.35-1.36 1.35H3.33c-.74 0-1.35-.6-1.35-1.35v-5.7h1.95a4.48 4.48 0 00-.28 1.56 3.85 3.85 0 007.7 0c0-.51-.11-1.12-.29-1.57h1.93v5.71z" fill="#00ADEE"/>
</svg>
